src/icons/icons_set_02/054-bike.svg

<svg height="50" viewBox="0 0 50 50" width="50" xmlns="http://www.w3.org/2000/svg"><path d="m32.540027 22.0480895c-.3887842-.3397229-.6466555-.8288926-.680398-1.3849587-.2088043-3.4410341-.9291281-4.6631308-1.859629-4.6631308-1.1045695 0-2-.8954305-2-2s.8954305-2 2-2c3.6814782 0 5.5317925 3.1392314 5.852285 8.4208536.0418256.6892728-.2706219 1.3181541-.7801207 1.7091091 4.4938392.7509614 7.9278357 4.6656918 7.9278357 9.3700373 0 5.2397968-4.2602032 9.5-9.5 9.5s-9.5-4.2602032-9.5-9.5c0-4.9158019 3.7496452-8.9694082 8.540027-9.4519105zm-23.040027 18.9519105c-5.23979677 0-9.5-4.2602032-9.5-9.5s4.26020323-9.5 9.5-9.5c5.2397968 0 9.5 4.2602032 9.5 9.5s-4.2602032 9.5-9.5 9.5zm0-4c3.0306578 0 5.5-2.4693422 5.5-5.5s-2.4693422-5.5-5.5-5.5c-3.03065777 0-5.5 2.4693422-5.5 5.5s2.46934223 5.5 5.5 5.5zm24 0c3.0306578 0 5.5-2.4693422 5.5-5.5s-2.4693422-5.5-5.5-5.5-5.5 2.4693422-5.5 5.5 2.4693422 5.5 5.5 5.5zm-13.59988-37c1.905 0 3.45 1.53671642 3.45 3.43283582s-1.545 3.43283582-3.45 3.43283582c-1.9056 0-3.45-1.53671642-3.45-3.43283582s1.5444-3.43283582 3.45-3.43283582zm-11.4076196 17.2520162c.2756769-.3613038.70088316-.9418862 1.27056335-1.7353464 1.15368025-1.6068656 2.88934785-4.0718966 5.20486015-7.39216195.6597848-.9460804 1.980907-1.13947893 2.8841881-.42221513l9.2470703 7.34277348c.8650226.686884 1.0094325 1.9449529.3225484 2.8099755-.686884.8650226-1.9449529 1.0094324-2.8099755.3225484l-7.5814042-6.0201265c-1.5244464 2.1796195-2.7469649 3.9138372-3.6683601 5.2037542 4.9156568 1.1162563 8.4776533 4.5705368 10.5178445 10.1874253.3771012 1.0382045-.1588288 2.1855364-1.1970332 2.5626376-1.0382045.3771013-2.1855364-.1588288-2.5626376-1.1970332-1.965345-5.4108279-5.3502552-7.9503803-10.47270366-7.9503803v-.0016982c-.53486479.015429-.66077868-.0747164-1.51073225-.6832224-.48184724-.8482188-.48184724-.8482188-.48926775-1.3150794 0-.6028301.26670777-1.1433673.68856184-1.5100501.04169967-.0526159.09449565-.120567.15647762-.2018009z" transform="translate(3 5)"/></svg>

<?xml version="1.0" encoding="UTF-8"?>
<svg width="50px" height="50px" viewBox="0 0 50 50" version="1.1" xmlns="http://www.w3.org/2000/svg" xmlns:xlink="http://www.w3.org/1999/xlink">
    <!-- Generator: Sketch 52.6 (67491) - http://www.bohemiancoding.com/sketch -->
    <title>054-bike</title>
    <desc>Created with Sketch.</desc>
    <g id="054-bike" stroke="none" stroke-width="1" fill="none" fill-rule="evenodd">
        <g id="Group-11" transform="translate(3.000000, 5.000000)" fill="#000000" fill-rule="nonzero">
            <path d="M32.540027,22.0480895 C32.1512428,21.7083666 31.8933715,21.2191969 31.859629,20.6631308 C31.6508247,17.2220967 30.9305009,16 30,16 C28.8954305,16 28,15.1045695 28,14 C28,12.8954305 28.8954305,12 30,12 C33.6814782,12 35.5317925,15.1392314 35.852285,20.4208536 C35.8941106,21.1101264 35.5816631,21.7390077 35.0721643,22.1299627 C39.5660035,22.8809241 43,26.7956545 43,31.5 C43,36.7397968 38.7397968,41 33.5,41 C28.2602032,41 24,36.7397968 24,31.5 C24,26.5841981 27.7496452,22.5305918 32.540027,22.0480895 Z M9.5,41 C4.26020323,41 0,36.7397968 0,31.5 C0,26.2602032 4.26020323,22 9.5,22 C14.7397968,22 19,26.2602032 19,31.5 C19,36.7397968 14.7397968,41 9.5,41 Z M9.5,37 C12.5306578,37 15,34.5306578 15,31.5 C15,28.4693422 12.5306578,26 9.5,26 C6.46934223,26 4,28.4693422 4,31.5 C4,34.5306578 6.46934223,37 9.5,37 Z M33.5,37 C36.5306578,37 39,34.5306578 39,31.5 C39,28.4693422 36.5306578,26 33.5,26 C30.4693422,26 28,28.4693422 28,31.5 C28,34.5306578 30.4693422,37 33.5,37 Z M19.90012,2.5313085e-14 C21.80512,2.5313085e-14 23.35012,1.53671642 23.35012,3.43283582 C23.35012,5.32895522 21.80512,6.86567164 19.90012,6.86567164 C17.99452,6.86567164 16.45012,5.32895522 16.45012,3.43283582 C16.45012,1.53671642 17.99452,2.5313085e-14 19.90012,2.5313085e-14 Z M8.4925004,17.2520162 C8.7681773,16.8907124 9.19338356,16.31013 9.76306375,15.5166698 C10.916744,13.9098042 12.6524116,11.4447732 14.9679239,8.12450785 C15.6277087,7.17842745 16.9488309,6.98502892 17.852112,7.70229272 L27.0991823,15.0450662 C27.9642049,15.7319502 28.1086148,16.9900191 27.4217307,17.8550417 C26.7348467,18.7200643 25.4767778,18.8644741 24.6117552,18.1775901 L17.030351,12.1574636 C15.5059046,14.3370831 14.2833861,16.0713008 13.3619909,17.3612178 C18.2776477,18.4774741 21.8396442,21.9317546 23.8798354,27.5486431 C24.2569366,28.5868476 23.7210066,29.7341795 22.6828022,30.1112807 C21.6445977,30.488382 20.4972658,29.9524519 20.1201646,28.9142475 C18.1548196,23.5034196 14.7699094,20.9638672 9.64746094,20.9638672 L9.64746094,20.962169 C9.11259615,20.977598 8.98668226,20.8874526 8.13672869,20.2789466 C7.65488145,19.4307278 7.65488145,19.4307278 7.64746094,18.9638672 C7.64746094,18.3610371 7.91416871,17.8204999 8.33602278,17.4538171 C8.37772245,17.4012012 8.43051843,17.3332501 8.4925004,17.2520162 Z" id="Combined-Shape"></path>
        </g>
    </g>
</svg>
